X: 15910
T: Grand Spey, The
R: reel
M: 4/4
K: Dmajor
FAdA BAdA|FAdA FEEG|FAdA BAdA|FAEG FDD2|
FAdA BAdA|FAdA FEEA|FABc defg|1 afge fddA:|2 afge fdd2||
|:~f3d ~e3d|(3Bcd Ad (3Bcd Ad|~f3d ~e3d|(3Bcd AF FEEd|
~f3d ~e3d|(3Bcd Ad (3Bcd Ad|fbba faed|(3Bcd AG FDD2:|
faaf ~d3e|fbba bafe|(3fga fe ~d3A|BdAF FEE2|
faaf ~d3e|fbba bafe|(3fga fe ~d3A|BdAG FDD2|
faaf ~d3e|fbba bafe|(3fga fe ~d3e|fbba fee2|
faaf ~d3e|fbba bafe|(3fga fe ~d3A|(3Bcd AG FDD2||

